Icons/com_android_calendar.svg

<svg viewBox="0 0 48 48" xmlns:xlink="http://www.w3.org/1999/xlink">
 <defs>
  <linearGradient id="0">
   <stop stop-opacity="0"/>
   <stop offset="1"/>
  </linearGradient>
  <linearGradient xlink:href="#0" id="1" gradientUnits="userSpaceOnUse" gradientTransform="translate(4e-7,-48)" y1="47" x2="0" y2="1"/>
  <clipPath id="2">
   <g transform="translate(0,-1004.3622)">
    <rect rx="4" y="1005.36" x="1" height="46" width="46" fill="#1890d0"/>
   </g>
  </clipPath>
  <clipPath id="3">
   <g transform="translate(0,-1004.3622)">
    <rect rx="4" y="1005.36" x="1" height="46" width="46" fill="#1890d0"/>
   </g>
  </clipPath>
 </defs>
 <g>
  <g transform="translate(0,-1004.3622)">
   <path d="m 5,1006.3622 c -2.216,0 -4,1.784 -4,4 l 0,37.25 c 0,2.216 1.784,4 4,4 l 38,0 c 2.216,0 4,-1.784 4,-4 l 0,-37.25 c 0,-2.216 -1.784,-4 -4,-4 l -38,0 z m -4,41.5 0,0.5 c 0,2.216 1.784,4 4,4 l 38,0 c 2.216,0 4,-1.784 4,-4 l 0,-0.5 c 0,2.216 -1.784,4 -4,4 l -38,0 c -2.216,0 -4,-1.784 -4,-4 z" opacity="0.02"/>
   <path d="m 1,1047.6122 0,0.25 c 0,2.216 1.784,4 4,4 l 38,0 c 2.216,0 4,-1.784 4,-4 l 0,-0.25 c 0,2.216 -1.784,4 -4,4 l -38,0 c -2.216,0 -4,-1.784 -4,-4 z" opacity="0.05"/>
   <rect width="46" height="46" x="1" y="1005.61" rx="4" opacity="0.1"/>
  </g>
 </g>
 <g>
  <g transform="translate(0,-1004.3622)">
   <rect rx="4" y="1005.36" x="1" height="46" width="46" fill="#efefef"/>
  </g>
 </g>
 <g>
  <rect transform="scale(1,-1)" width="46" height="46" x="1" y="-46.998" rx="4" opacity="0.1" fill="url(#1)"/>
 </g>
 <g>
  <g clip-path="url(#2)">
   <g opacity="0.1">
    <path d="M 0 0 L 0 17 L 48 17 L 48 0 L 0 0 z " fill-rule="evenodd"/>
    <g>
     <path d="M 31 12 C 31 13.105469 30.105469 14 29 14 C 27.894531 14 27 13.105469 27 12 C 27 10.898438 27.894531 10 29 10 C 30.105469 10 31 10.898438 31 12 Z M 31 12 "/>
     <path d="M 36 12 C 36 13.105469 35.105469 14 34 14 C 32.894531 14 32 13.105469 32 12 C 32 10.898438 32.894531 10 34 10 C 35.105469 10 36 10.898438 36 12 Z M 36 12 "/>
     <path d="M 34 13 C 35 13 35 12 35 12 C 35 12 35 11 34 11 L 29 11 C 28 11 28 12 28 12 C 28 12 28 13 29 13 Z M 34 13 "/>
     <path d="M 16 12 C 16 13.105469 15.105469 14 14 14 C 12.894531 14 12 13.105469 12 12 C 12 10.898438 12.894531 10 14 10 C 15.105469 10 16 10.898438 16 12 Z M 16 12 "/>
     <path d="M 21 12 C 21 13.105469 20.105469 14 19 14 C 17.894531 14 17 13.105469 17 12 C 17 10.898438 17.894531 10 19 10 C 20.105469 10 21 10.898438 21 12 Z M 21 12 "/>
     <path d="M 14 13 C 13 13 13 12 13 12 C 13 12 13 11 14 11 L 19 11 C 20 11 20 12 20 12 C 20 12 20 13 19 13 Z M 14 13 "/>
     <path d="M 19.15625 34.816406 L 17.570312 34.816406 L 17.570312 25.109375 C 17.570312 24.300781 17.597656 23.539062 17.648438 22.816406 C 17.511719 22.949219 17.359375 23.085938 17.1875 23.226562 C 17.019531 23.371094 16.242188 23.976562 14.863281 25.042969 L 14 23.984375 L 17.785156 21.199219 L 19.15625 21.199219 L 19.15625 34.816406 "/>
     <path d="M 34 27.007812 C 34 32.335938 31.835938 35 27.507812 35 C 26.75 35 26.152344 34.941406 25.707031 34.816406 L 25.707031 33.484375 C 26.230469 33.644531 26.824219 33.726562 27.488281 33.726562 C 29.050781 33.726562 30.234375 33.265625 31.027344 32.347656 C 31.828125 31.421875 32.265625 30.007812 32.339844 28.097656 L 32.222656 28.097656 C 31.863281 28.613281 31.386719 29.007812 30.792969 29.28125 C 30.199219 29.550781 29.53125 29.683594 28.789062 29.683594 C 27.523438 29.683594 26.519531 29.324219 25.777344 28.601562 C 25.03125 27.882812 24.660156 26.875 24.660156 25.585938 C 24.660156 24.167969 25.074219 23.050781 25.902344 22.230469 C 26.738281 21.410156 27.832031 21 29.1875 21 C 30.160156 21 31.007812 21.242188 31.730469 21.71875 C 32.460938 22.191406 33.023438 22.882812 33.414062 23.796875 C 33.804688 24.703125 34 25.773438 34 27.007812 M 29.1875 22.324219 C 28.257812 22.324219 27.535156 22.609375 27.027344 23.179688 C 26.519531 23.753906 26.265625 24.546875 26.265625 25.566406 C 26.265625 26.460938 26.5 27.164062 26.96875 27.679688 C 27.4375 28.191406 28.152344 28.445312 29.109375 28.445312 C 29.703125 28.445312 30.25 28.328125 30.746094 28.097656 C 31.246094 27.871094 31.640625 27.554688 31.929688 27.160156 C 32.214844 26.761719 32.359375 26.34375 32.359375 25.910156 C 32.359375 25.257812 32.222656 24.65625 31.957031 24.105469 C 31.691406 23.550781 31.316406 23.117188 30.832031 22.800781 C 30.355469 22.484375 29.808594 22.324219 29.1875 22.324219 "/>
    </g>
   </g>
  </g>
 </g>
 <g>
  <g clip-path="url(#3)">
   <g transform="translate(0,-1)">
    <path d="M 0 0 L 0 17 L 48 17 L 48 0 L 0 0 z " fill="#d64937" fill-rule="evenodd"/>
    <g>
     <path d="M 31 12 C 31 13.105469 30.105469 14 29 14 C 27.894531 14 27 13.105469 27 12 C 27 10.898438 27.894531 10 29 10 C 30.105469 10 31 10.898438 31 12 Z M 31 12 " fill="#802c20"/>
     <path d="M 36 12 C 36 13.105469 35.105469 14 34 14 C 32.894531 14 32 13.105469 32 12 C 32 10.898438 32.894531 10 34 10 C 35.105469 10 36 10.898438 36 12 Z M 36 12 " fill="#802c20"/>
     <path d="M 34 13 C 35 13 35 12 35 12 C 35 12 35 11 34 11 L 29 11 C 28 11 28 12 28 12 C 28 12 28 13 29 13 Z M 34 13 " fill="#dcdcdc"/>
     <path d="M 16 12 C 16 13.105469 15.105469 14 14 14 C 12.894531 14 12 13.105469 12 12 C 12 10.898438 12.894531 10 14 10 C 15.105469 10 16 10.898438 16 12 Z M 16 12 " fill="#802c20"/>
     <path d="M 21 12 C 21 13.105469 20.105469 14 19 14 C 17.894531 14 17 13.105469 17 12 C 17 10.898438 17.894531 10 19 10 C 20.105469 10 21 10.898438 21 12 Z M 21 12 " fill="#802c20"/>
     <path d="M 14 13 C 13 13 13 12 13 12 C 13 12 13 11 14 11 L 19 11 C 20 11 20 12 20 12 C 20 12 20 13 19 13 Z M 14 13 " fill="#dcdcdc"/>
     <path d="M 19.15625 34.816406 L 17.570312 34.816406 L 17.570312 25.109375 C 17.570312 24.300781 17.597656 23.539062 17.648438 22.816406 C 17.511719 22.949219 17.359375 23.085938 17.1875 23.226562 C 17.019531 23.371094 16.242188 23.976562 14.863281 25.042969 L 14 23.984375 L 17.785156 21.199219 L 19.15625 21.199219 L 19.15625 34.816406 " fill="#868686"/>
     <path d="M 34 27.007812 C 34 32.335938 31.835938 35 27.507812 35 C 26.75 35 26.152344 34.941406 25.707031 34.816406 L 25.707031 33.484375 C 26.230469 33.644531 26.824219 33.726562 27.488281 33.726562 C 29.050781 33.726562 30.234375 33.265625 31.027344 32.347656 C 31.828125 31.421875 32.265625 30.007812 32.339844 28.097656 L 32.222656 28.097656 C 31.863281 28.613281 31.386719 29.007812 30.792969 29.28125 C 30.199219 29.550781 29.53125 29.683594 28.789062 29.683594 C 27.523438 29.683594 26.519531 29.324219 25.777344 28.601562 C 25.03125 27.882812 24.660156 26.875 24.660156 25.585938 C 24.660156 24.167969 25.074219 23.050781 25.902344 22.230469 C 26.738281 21.410156 27.832031 21 29.1875 21 C 30.160156 21 31.007812 21.242188 31.730469 21.71875 C 32.460938 22.191406 33.023438 22.882812 33.414062 23.796875 C 33.804688 24.703125 34 25.773438 34 27.007812 M 29.1875 22.324219 C 28.257812 22.324219 27.535156 22.609375 27.027344 23.179688 C 26.519531 23.753906 26.265625 24.546875 26.265625 25.566406 C 26.265625 26.460938 26.5 27.164062 26.96875 27.679688 C 27.4375 28.191406 28.152344 28.445312 29.109375 28.445312 C 29.703125 28.445312 30.25 28.328125 30.746094 28.097656 C 31.246094 27.871094 31.640625 27.554688 31.929688 27.160156 C 32.214844 26.761719 32.359375 26.34375 32.359375 25.910156 C 32.359375 25.257812 32.222656 24.65625 31.957031 24.105469 C 31.691406 23.550781 31.316406 23.117188 30.832031 22.800781 C 30.355469 22.484375 29.808594 22.324219 29.1875 22.324219 " fill="#868686"/>
    </g>
   </g>
  </g>
 </g>
 <g>
  <g transform="translate(0,-1004.3622)">
   <path d="m 1,1043.3622 0,4 c 0,2.216 1.784,4 4,4 l 38,0 c 2.216,0 4,-1.784 4,-4 l 0,-4 c 0,2.216 -1.784,4 -4,4 l -38,0 c -2.216,0 -4,-1.784 -4,-4 z" opacity="0.1"/>
  </g>
 </g>
</svg>

<svg viewBox="0 0 48 48"><defs><linearGradient id="linearGradient3764" x1="1" x2="47" gradientUnits="userSpaceOnUse" gradientTransform="translate(-48.000001,0.00221467)"><stop stop-color="#e5e5e5" stop-opacity="1"/><stop offset="1" stop-color="#efefef" stop-opacity="1"/></linearGradient><clipPath id="clipPath-096596997"><g transform="translate(0,-1004.3622)"><rect rx="4" y="1005.36" x="1" height="46" width="46" fill="#1890d0"/></g></clipPath><clipPath id="clipPath-110350986"><g transform="translate(0,-1004.3622)"><rect rx="4" y="1005.36" x="1" height="46" width="46" fill="#1890d0"/></g></clipPath></defs><g><path d="m 1 43 l 0 0.25 c 0 2.216 1.784 4 4 4 l 38 0 c 2.216 0 4 -1.784 4 -4 l 0 -0.25 c 0 2.216 -1.784 4 -4 4 l -38 0 c -2.216 0 -4 -1.784 -4 -4 z m 0 0.5 l 0 0.5 c 0 2.216 1.784 4 4 4 l 38 0 c 2.216 0 4 -1.784 4 -4 l 0 -0.5 c 0 2.216 -1.784 4 -4 4 l -38 0 c -2.216 0 -4 -1.784 -4 -4 z" opacity="0.02"/><path d="m 1 43.25 l 0 0.25 c 0 2.216 1.784 4 4 4 l 38 0 c 2.216 0 4 -1.784 4 -4 l 0 -0.25 c 0 2.216 -1.784 4 -4 4 l -38 0 c -2.216 0 -4 -1.784 -4 -4 z" opacity="0.05"/><path d="m 1 43 l 0 0.25 c 0 2.216 1.784 4 4 4 l 38 0 c 2.216 0 4 -1.784 4 -4 l 0 -0.25 c 0 2.216 -1.784 4 -4 4 l -38 0 c -2.216 0 -4 -1.784 -4 -4 z" opacity="0.1"/></g><g><rect width="46" height="46" x="-47" y="1" rx="4" transform="matrix(0,-1,1,0,0,0)" fill="url(#linearGradient3764)" fill-opacity="1"/></g><g><g clip-path="url(#clipPath-096596997)"><g opacity="0.1"><!-- color: #efefef --><path d="M 0 0 L 0 17 L 48 17 L 48 0 L 0 0 z " fill-rule="evenodd" fill="#000"/><g><path d="m 31 12 c 0 1.105 -0.895 2 -2 2 c -1.105 0 -2 -0.895 -2 -2 c 0 -1.102 0.895 -2 2 -2 c 1.105 0 2 0.898 2 2 m 0 0" fill="#000"/><path d="m 36 12 c 0 1.105 -0.895 2 -2 2 c -1.105 0 -2 -0.895 -2 -2 c 0 -1.102 0.895 -2 2 -2 c 1.105 0 2 0.898 2 2 m 0 0" fill="#000"/><path d="m 34 13 c 1 0 1 -1 1 -1 c 0 0 0 -1 -1 -1 l -5 0 c -1 0 -1 1 -1 1 c 0 0 0 1 1 1 m 5 0" fill="#000"/><path d="m 16 12 c 0 1.105 -0.895 2 -2 2 c -1.105 0 -2 -0.895 -2 -2 c 0 -1.102 0.895 -2 2 -2 c 1.105 0 2 0.898 2 2 m 0 0" fill="#000"/><path d="m 21 12 c 0 1.105 -0.895 2 -2 2 c -1.105 0 -2 -0.895 -2 -2 c 0 -1.102 0.895 -2 2 -2 c 1.105 0 2 0.898 2 2 m 0 0" fill="#000"/><path d="m 14 13 c -1 0 -1 -1 -1 -1 c 0 0 0 -1 1 -1 l 5 0 c 1 0 1 1 1 1 c 0 0 0 1 -1 1 m -5 0" fill="#000"/><path d="m 19.16 34.816 l -1.586 0 l 0 -9.707 c 0 -0.809 0.027 -1.57 0.078 -2.293 c -0.137 0.133 -0.289 0.27 -0.461 0.41 c -0.168 0.145 -0.945 0.75 -2.324 1.816 l -0.863 -1.059 l 3.785 -2.785 l 1.371 0 l 0 13.617" fill="#000"/><path d="m 34 27.01 c 0 5.328 -2.164 7.992 -6.492 7.992 c -0.758 0 -1.355 -0.059 -1.801 -0.184 l 0 -1.332 c 0.523 0.16 1.117 0.242 1.781 0.242 c 1.563 0 2.746 -0.461 3.539 -1.379 c 0.801 -0.926 1.238 -2.34 1.313 -4.25 l -0.117 0 c -0.359 0.516 -0.836 0.91 -1.43 1.184 c -0.594 0.27 -1.262 0.402 -2 0.402 c -1.266 0 -2.27 -0.359 -3.01 -1.082 c -0.746 -0.719 -1.117 -1.727 -1.117 -3.02 c 0 -1.418 0.414 -2.535 1.242 -3.355 c 0.836 -0.82 1.93 -1.23 3.285 -1.23 c 0.973 0 1.82 0.242 2.543 0.719 c 0.73 0.473 1.293 1.164 1.684 2.078 c 0.391 0.906 0.586 1.977 0.586 3.211 m -4.813 -4.684 c -0.93 0 -1.652 0.285 -2.16 0.855 c -0.508 0.574 -0.762 1.367 -0.762 2.387 c 0 0.895 0.234 1.598 0.703 2.113 c 0.469 0.512 1.184 0.766 2.141 0.766 c 0.594 0 1.141 -0.117 1.637 -0.348 c 0.5 -0.227 0.895 -0.543 1.184 -0.938 c 0.285 -0.398 0.43 -0.816 0.43 -1.25 c 0 -0.652 -0.137 -1.254 -0.402 -1.805 c -0.266 -0.555 -0.641 -0.988 -1.125 -1.305 c -0.477 -0.316 -1.023 -0.477 -1.645 -0.477" fill="#000"/></g></g></g></g><g><g clip-path="url(#clipPath-110350986)"><g transform="translate(0,-1)"><!-- color: #efefef --><path d="M 0 0 L 0 17 L 48 17 L 48 0 L 0 0 z " fill="#d64937" fill-rule="evenodd"/><g><path d="m 31 12 c 0 1.105 -0.895 2 -2 2 c -1.105 0 -2 -0.895 -2 -2 c 0 -1.102 0.895 -2 2 -2 c 1.105 0 2 0.898 2 2 m 0 0" fill="#802c20"/><path d="m 36 12 c 0 1.105 -0.895 2 -2 2 c -1.105 0 -2 -0.895 -2 -2 c 0 -1.102 0.895 -2 2 -2 c 1.105 0 2 0.898 2 2 m 0 0" fill="#802c20"/><path d="m 34 13 c 1 0 1 -1 1 -1 c 0 0 0 -1 -1 -1 l -5 0 c -1 0 -1 1 -1 1 c 0 0 0 1 1 1 m 5 0" fill="#dcdcdc"/><path d="m 16 12 c 0 1.105 -0.895 2 -2 2 c -1.105 0 -2 -0.895 -2 -2 c 0 -1.102 0.895 -2 2 -2 c 1.105 0 2 0.898 2 2 m 0 0" fill="#802c20"/><path d="m 21 12 c 0 1.105 -0.895 2 -2 2 c -1.105 0 -2 -0.895 -2 -2 c 0 -1.102 0.895 -2 2 -2 c 1.105 0 2 0.898 2 2 m 0 0" fill="#802c20"/><path d="m 14 13 c -1 0 -1 -1 -1 -1 c 0 0 0 -1 1 -1 l 5 0 c 1 0 1 1 1 1 c 0 0 0 1 -1 1 m -5 0" fill="#dcdcdc"/><path d="m 19.16 34.816 l -1.586 0 l 0 -9.707 c 0 -0.809 0.027 -1.57 0.078 -2.293 c -0.137 0.133 -0.289 0.27 -0.461 0.41 c -0.168 0.145 -0.945 0.75 -2.324 1.816 l -0.863 -1.059 l 3.785 -2.785 l 1.371 0 l 0 13.617" fill="#868686"/><path d="m 34 27.01 c 0 5.328 -2.164 7.992 -6.492 7.992 c -0.758 0 -1.355 -0.059 -1.801 -0.184 l 0 -1.332 c 0.523 0.16 1.117 0.242 1.781 0.242 c 1.563 0 2.746 -0.461 3.539 -1.379 c 0.801 -0.926 1.238 -2.34 1.313 -4.25 l -0.117 0 c -0.359 0.516 -0.836 0.91 -1.43 1.184 c -0.594 0.27 -1.262 0.402 -2 0.402 c -1.266 0 -2.27 -0.359 -3.01 -1.082 c -0.746 -0.719 -1.117 -1.727 -1.117 -3.02 c 0 -1.418 0.414 -2.535 1.242 -3.355 c 0.836 -0.82 1.93 -1.23 3.285 -1.23 c 0.973 0 1.82 0.242 2.543 0.719 c 0.73 0.473 1.293 1.164 1.684 2.078 c 0.391 0.906 0.586 1.977 0.586 3.211 m -4.813 -4.684 c -0.93 0 -1.652 0.285 -2.16 0.855 c -0.508 0.574 -0.762 1.367 -0.762 2.387 c 0 0.895 0.234 1.598 0.703 2.113 c 0.469 0.512 1.184 0.766 2.141 0.766 c 0.594 0 1.141 -0.117 1.637 -0.348 c 0.5 -0.227 0.895 -0.543 1.184 -0.938 c 0.285 -0.398 0.43 -0.816 0.43 -1.25 c 0 -0.652 -0.137 -1.254 -0.402 -1.805 c -0.266 -0.555 -0.641 -0.988 -1.125 -1.305 c -0.477 -0.316 -1.023 -0.477 -1.645 -0.477" fill="#868686"/></g></g></g></g><g><g transform="translate(0,-1004.3622)"><path d="m 1 1043.36 0 4 c 0 2.216 1.784 4 4 4 l 38 0 c 2.216 0 4 -1.784 4 -4 l 0 -4 c 0 2.216 -1.784 4 -4 4 l -38 0 c -2.216 0 -4 -1.784 -4 -4 z" opacity="0.1"/></g></g></svg>
